lib/images/logo_marketing.svg

<svg width="184" height="24" viewBox="0 0 184 24" fill="none" xmlns="http://www.w3.org/2000/svg">
<g clip-path="url(#clip0)">
<path d="M20.79 12.41C17.5778 16.8311 13.6426 20.6785 9.14998 23.79C8.24998 24.4 7.72999 23.56 8.26999 22.88C11.6707 18.6256 15.5798 14.8038 19.91 11.5C20.66 11 21.26 11.74 20.79 12.41ZM16.59 8.05998C17.15 7.27998 16.64 6.48998 15.71 7.14998C15.15 7.53998 6.34998 15.37 4.70998 17.07C3.10998 15.69 1.41998 14.25 1.01998 13.93C0.891169 13.8203 0.724188 13.7662 0.555541 13.7793C0.386894 13.7924 0.230298 13.8717 0.119984 14C0.0257874 14.1159 -0.0256348 14.2606 -0.0256348 14.41C-0.0256348 14.5593 0.0257874 14.7041 0.119984 14.82C1.30342 16.4805 2.59982 18.0576 3.99998 19.54C4.16752 19.7644 4.41634 19.9141 4.69303 19.9571C4.96973 20.0001 5.25226 19.9329 5.47998 19.77L5.61998 19.65C9.72396 16.236 13.4066 12.3453 16.59 8.05998ZM4.84998 11.06C7.54879 9.05874 10.0805 6.84144 12.42 4.42998C12.6239 4.22563 12.7385 3.9487 12.7385 3.65998C12.7385 3.37126 12.6239 3.09433 12.42 2.88998L12.36 2.83998C12.09 2.64998 9.46999 0.349979 9.17999 0.139979C8.57998 -0.280021 7.86999 0.309979 8.26999 1.02998C8.66998 1.74998 9.38999 2.88998 9.82998 3.57998C9.45998 3.90998 4.51998 9.49998 3.99998 10.19C3.47998 10.88 3.99998 11.71 4.87998 11.1L4.84998 11.06Z" fill="#FF6200"/>
<path d="M27.28 5.54993H30.15V11.3099L35.42 5.54993H38.88L33.58 11.1399L39.12 18.7199H35.68L31.68 13.1199L30.14 14.6999V18.6999H27.28V5.54993ZM45.87 5.45993H48.51L54.08 18.7199H51.08L49.9 15.7699H44.4L43.21 18.7199H40.29L45.87 5.45993ZM48.87 13.2099L47.15 8.93993L45.42 13.2099H48.87ZM55.6 12.2099C55.5881 11.3274 55.7502 10.4512 56.077 9.63135C56.4037 8.81148 56.8888 8.06402 57.5045 7.43163C58.1201 6.79925 58.8543 6.29434 59.6652 5.94574C60.476 5.59713 61.3475 5.41167 62.23 5.39993H62.42C63.3505 5.35037 64.2817 5.48472 65.1602 5.7953C66.0387 6.10587 66.8474 6.58658 67.54 7.20993L65.74 9.40993C64.8409 8.51018 63.622 8.0032 62.35 7.99993C61.3119 8.05178 60.3362 8.51179 59.6357 9.27975C58.9352 10.0477 58.5665 11.0614 58.61 12.0999C58.5442 13.1378 58.8925 14.1595 59.5785 14.9411C60.2645 15.7227 61.2324 16.2006 62.27 16.2699H62.55C63.5109 16.2984 64.4561 16.0219 65.25 15.4799V13.6299H62.37V11.1299H68V16.8499C66.467 18.207 64.4874 18.9511 62.44 18.9399C61.5805 18.9803 60.7214 18.8508 59.9118 18.559C59.1023 18.2672 58.3582 17.8187 57.7221 17.2393C57.086 16.6598 56.5702 15.9606 56.2044 15.1817C55.8386 14.4028 55.6298 13.5595 55.59 12.6999C55.58 12.5234 55.58 12.3465 55.59 12.1699L55.6 12.2099ZM76.15 5.45993H78.79L84.37 18.7199H81.37L80.18 15.7699H74.68L73.5 18.7199H70.58L76.15 5.45993ZM79.15 13.2099L77.43 8.93993L75.71 13.2099H79.15ZM87.3 5.54993H93.24C93.931 5.5064 94.6236 5.60263 95.2765 5.83286C95.9294 6.0631 96.5292 6.42262 97.04 6.88993C97.4157 7.29072 97.7074 7.7626 97.8981 8.2778C98.0887 8.79301 98.1744 9.34113 98.15 9.88993C98.2012 10.785 97.9568 11.6721 97.4545 12.4146C96.9522 13.1572 96.2198 13.7142 95.37 13.9999L98.55 18.6999H95.21L92.42 14.4999H90.17V18.7199H87.31L87.3 5.54993ZM93.07 11.9999C94.46 11.9999 95.26 11.2499 95.26 10.1399C95.26 8.89993 94.41 8.25993 93.01 8.25993H90.17V11.9999H93.07ZM101.81 5.59993H104.67V18.7199H101.81V5.59993Z" fill="#233241"/>
<path d="M121.53 12.92C121.44 11.19 121.32 9.09002 121.33 7.55002C120.9 8.99002 120.39 10.55 119.77 12.27L117.57 18.27H116.3L114.3 12.34C113.71 10.58 113.23 8.98002 112.88 7.51002C112.88 9.06002 112.76 11.14 112.64 13L112.31 18.35H110.7L111.57 5.90002H113.62L115.74 11.9C116.26 13.43 116.67 14.8 117 16.1C117.32 14.84 117.76 13.47 118.31 11.91L120.53 5.91002H122.59L123.36 18.36H121.78L121.53 12.92ZM130.44 18.39L130.29 17.26C129.974 17.6835 129.561 18.0252 129.087 18.2566C128.612 18.4879 128.088 18.6023 127.56 18.59C127.203 18.6224 126.843 18.5792 126.504 18.4631C126.165 18.347 125.854 18.1606 125.591 17.9162C125.329 17.6718 125.121 17.3748 124.981 17.0446C124.842 16.7144 124.773 16.3585 124.78 16C124.78 13.83 126.7 12.65 130.15 12.67V12.48C130.186 12.2062 130.16 11.9277 130.073 11.6654C129.986 11.4032 129.841 11.164 129.649 10.9658C129.456 10.7676 129.222 10.6156 128.962 10.521C128.702 10.4265 128.425 10.392 128.15 10.42C127.327 10.4183 126.52 10.6469 125.82 11.08L125.42 10C126.328 9.46691 127.367 9.19685 128.42 9.22002C131.15 9.22002 131.82 11.09 131.82 12.88V16.22C131.809 16.9356 131.852 17.6511 131.95 18.36L130.44 18.39ZM130.18 13.83C128.42 13.83 126.41 14.11 126.41 15.83C126.391 16.0363 126.416 16.2442 126.485 16.4395C126.554 16.6349 126.665 16.8128 126.81 16.9612C126.954 17.1096 127.129 17.2248 127.323 17.2988C127.516 17.3728 127.723 17.404 127.93 17.39C128.406 17.4039 128.873 17.266 129.265 16.9963C129.657 16.7266 129.953 16.3392 130.11 15.89C130.157 15.7241 130.181 15.5525 130.18 15.38V13.83ZM133.92 12.24C133.92 11.18 133.92 10.24 133.85 9.45002H135.27L135.34 11.21C135.493 10.6574 135.815 10.1669 136.262 9.80791C136.709 9.44894 137.258 9.23975 137.83 9.21002C137.982 9.20457 138.133 9.22142 138.28 9.26002V10.78C138.097 10.7632 137.913 10.7632 137.73 10.78C137.177 10.8025 136.651 11.0263 136.251 11.4094C135.852 11.7925 135.606 12.3083 135.56 12.86C135.51 13.1102 135.487 13.3649 135.49 13.62V18.39H133.87L133.92 12.24ZM141.19 13.55C141.41 13.24 141.72 12.84 141.97 12.55L144.6 9.47002H146.6L143.15 13.15L147.08 18.41H145.08L142 14.1L141.16 15.03V18.39H139.55V5.27002H141.16L141.19 13.55ZM148.71 14.22C148.674 14.6327 148.728 15.0483 148.869 15.4379C149.009 15.8276 149.233 16.1821 149.524 16.4769C149.815 16.7718 150.166 16.9998 150.554 17.1454C150.942 17.291 151.357 17.3505 151.77 17.32C152.62 17.3441 153.465 17.1873 154.25 16.86L154.53 18.01C153.582 18.4123 152.559 18.6067 151.53 18.58C150.934 18.615 150.337 18.5215 149.779 18.3057C149.222 18.0899 148.718 17.7569 148.301 17.3292C147.883 16.9015 147.563 16.3892 147.361 15.8269C147.159 15.2646 147.08 14.6654 147.13 14.07C147.13 11.37 148.73 9.25002 151.34 9.25002C154.25 9.25002 155.02 11.81 155.02 13.45C155.027 13.7081 155.007 13.9661 154.96 14.22H148.71ZM153.47 13.05C153.517 12.7265 153.494 12.3967 153.404 12.0826C153.313 11.7685 153.157 11.4773 152.945 11.2284C152.733 10.9795 152.47 10.7787 152.175 10.6393C151.879 10.4999 151.557 10.4252 151.23 10.42C150.559 10.4651 149.93 10.7604 149.467 11.2476C149.004 11.7347 148.741 12.378 148.73 13.05H153.47ZM158.55 6.88002V9.45002H160.89V10.68H158.55V15.5C158.55 16.61 158.87 17.24 159.78 17.24C160.097 17.2463 160.413 17.2093 160.72 17.13L160.8 18.36C160.33 18.517 159.836 18.5914 159.34 18.58C159.017 18.5974 158.694 18.5458 158.392 18.4285C158.09 18.3113 157.817 18.1311 157.59 17.9C157.104 17.2219 156.88 16.3905 156.96 15.56V10.68H155.57V9.45002H157V7.30002L158.55 6.88002ZM164.07 6.88002C164.07 7.14524 163.965 7.39959 163.777 7.58713C163.59 7.77466 163.335 7.88002 163.07 7.88002C162.805 7.88002 162.55 7.77466 162.363 7.58713C162.175 7.39959 162.07 7.14524 162.07 6.88002C162.07 6.6148 162.175 6.36045 162.363 6.17291C162.55 5.98538 162.805 5.88002 163.07 5.88002C163.335 5.88002 163.59 5.98538 163.777 6.17291C163.965 6.36045 164.07 6.6148 164.07 6.88002ZM162.25 18.34V9.45002H163.87V18.39L162.25 18.34ZM166.12 11.82C166.12 10.88 166.12 10.14 166.04 9.40002H167.48L167.57 10.87C167.869 10.3432 168.307 9.90869 168.836 9.61413C169.365 9.31957 169.965 9.1763 170.57 9.20002C171.8 9.20002 173.72 9.94002 173.72 13.01V18.34H172.1V13.24C172.1 11.79 171.56 10.58 170.04 10.58C169.544 10.592 169.065 10.7598 168.67 11.0596C168.275 11.3593 167.985 11.7759 167.84 12.25C167.769 12.4972 167.732 12.7529 167.73 13.01V18.39H166.12V11.82ZM183.25 9.40002C183.25 10.04 183.18 10.76 183.18 11.85V17.04C183.18 19.11 182.76 20.35 181.9 21.13C180.984 21.8713 179.828 22.2519 178.65 22.2C177.602 22.2317 176.566 21.9795 175.65 21.47L176.06 20.22C176.856 20.6917 177.765 20.9372 178.69 20.93C180.35 20.93 181.57 20.06 181.57 17.8V16.8C181.274 17.2822 180.855 17.6765 180.356 17.942C179.856 18.2075 179.295 18.3346 178.73 18.31C176.5 18.31 174.92 16.41 174.92 13.94C174.92 10.94 176.92 9.20002 178.92 9.20002C179.481 9.17062 180.039 9.29939 180.531 9.57166C181.022 9.84393 181.427 10.2487 181.7 10.74L181.77 9.40002H183.25ZM181.56 13C181.568 12.7535 181.537 12.5073 181.47 12.27C181.333 11.7709 181.036 11.3307 180.624 11.0179C180.211 10.7051 179.708 10.5371 179.19 10.54C177.64 10.54 176.53 11.85 176.53 13.93C176.53 15.68 177.43 17.15 179.17 17.15C179.677 17.1484 180.17 16.9844 180.577 16.6821C180.983 16.3797 181.282 15.9549 181.43 15.47C181.519 15.192 181.562 14.9018 181.56 14.61V13Z" fill="#233241"/>
</g>
<defs>
<clipPath id="clip0">
<path d="M0 0H183.25V24H0V0Z" fill="white"/>
</clipPath>
</defs>
</svg>

<svg width="184" height="24" fill="none" xmlns="http://www.w3.org/2000/svg"><g clip-path="url(#clip0)"><path d="M20.79 12.41A48.571 48.571 0 019.15 23.79c-.9.61-1.42-.23-.88-.91A66.688 66.688 0 0119.91 11.5c.75-.5 1.35.24.88.91zm-4.2-4.35c.56-.78.05-1.57-.88-.91-.56.39-9.36 8.22-11 9.92-1.6-1.38-3.29-2.82-3.69-3.14a.64.64 0 00-.9.07.65.65 0 000 .82A44.415 44.415 0 004 19.54a1.07 1.07 0 001.48.23l.14-.12A67.21 67.21 0 0016.59 8.06zm-11.74 3a62 62 0 007.57-6.63 1.09 1.09 0 000-1.54l-.06-.05C12.09 2.65 9.47.35 9.18.14c-.6-.42-1.31.17-.91.89s1.12 1.86 1.56 2.55C9.46 3.91 4.52 9.5 4 10.19c-.52.69 0 1.52.88.91l-.03-.04z" fill="#FF6200"/><path d="M27.28 5.55h2.87v5.76l5.27-5.76h3.46l-5.3 5.59 5.54 7.58h-3.44l-4-5.6-1.54 1.58v4h-2.86V5.55zm18.59-.09h2.64l5.57 13.26h-3l-1.18-2.95h-5.5l-1.19 2.95h-2.92l5.58-13.26zm3 7.75l-1.72-4.27-1.73 4.27h3.45zm6.73-1a6.72 6.72 0 016.63-6.81h.19a7.09 7.09 0 015.12 1.81l-1.8 2.2A4.81 4.81 0 0062.35 8a3.94 3.94 0 00-3.74 4.1 3.93 3.93 0 003.66 4.17h.28a4.55 4.55 0 002.7-.79v-1.85h-2.88v-2.5H68v5.72a8.32 8.32 0 01-5.56 2.09 6.55 6.55 0 01-6.85-6.24 4.685 4.685 0 010-.53l.01.04zm20.55-6.75h2.64l5.58 13.26h-3l-1.19-2.95h-5.5l-1.18 2.95h-2.92l5.57-13.26zm3 7.75l-1.72-4.27-1.72 4.27h3.44zm8.15-7.66h5.94a5.15 5.15 0 013.8 1.34 4.12 4.12 0 011.11 3A4.09 4.09 0 0195.37 14l3.18 4.7h-3.34l-2.79-4.2h-2.25v4.22h-2.86L87.3 5.55zM93.07 12c1.39 0 2.19-.75 2.19-1.86 0-1.24-.85-1.88-2.25-1.88h-2.84V12h2.9zm8.74-6.4h2.86v13.12h-2.86V5.6zm19.72 7.32c-.09-1.73-.21-3.83-.2-5.37-.43 1.44-.94 3-1.56 4.72l-2.2 6h-1.27l-2-5.93c-.59-1.76-1.07-3.36-1.42-4.83 0 1.55-.12 3.63-.24 5.49l-.33 5.35h-1.61l.87-12.45h2.05l2.12 6c.52 1.53.93 2.9 1.26 4.2.32-1.26.76-2.63 1.31-4.19l2.22-6h2.06l.77 12.45h-1.58l-.25-5.44zm8.91 5.47l-.15-1.13a3.317 3.317 0 01-2.73 1.33 2.549 2.549 0 01-2.78-2.59c0-2.17 1.92-3.35 5.37-3.33v-.19a1.83 1.83 0 00-2-2.06 4.41 4.41 0 00-2.33.66l-.4-1.08a5.68 5.68 0 013-.78c2.73 0 3.4 1.87 3.4 3.66v3.34a14.05 14.05 0 00.13 2.14l-1.51.03zm-.26-4.56c-1.76 0-3.77.28-3.77 2a1.434 1.434 0 00.4 1.131 1.42 1.42 0 001.12.429 2.239 2.239 0 002.18-1.5c.047-.166.071-.338.07-.51v-1.55zm3.74-1.59c0-1.06 0-2-.07-2.79h1.42l.07 1.76a2.732 2.732 0 012.49-2 1.55 1.55 0 01.45.05v1.52a3.007 3.007 0 00-.55 0 2.272 2.272 0 00-2.17 2.08c-.05.25-.073.505-.07.76v4.77h-1.62l.05-6.15zm7.27 1.31c.22-.31.53-.71.78-1l2.63-3.08h2l-3.45 3.68 3.93 5.26h-2L142 14.1l-.84.93v3.36h-1.61V5.27h1.61l.03 8.28zm7.52.67a2.85 2.85 0 00.814 2.257 2.856 2.856 0 002.246.843 6.001 6.001 0 002.48-.46l.28 1.15a7.202 7.202 0 01-3 .57 4.175 4.175 0 01-3.229-1.25 4.16 4.16 0 01-1.171-3.26c0-2.7 1.6-4.82 4.21-4.82 2.91 0 3.68 2.56 3.68 4.2.007.258-.013.516-.06.77h-6.25zm4.76-1.17a2.308 2.308 0 00-.525-1.822 2.306 2.306 0 00-1.715-.808 2.68 2.68 0 00-2.5 2.63h4.74zm5.08-6.17v2.57h2.34v1.23h-2.34v4.82c0 1.11.32 1.74 1.23 1.74.317.006.633-.03.94-.11l.08 1.23c-.47.157-.964.231-1.46.22a2.28 2.28 0 01-1.75-.68 3.45 3.45 0 01-.63-2.34v-4.88h-1.39V9.45H157V7.3l1.55-.42zm5.52 0a.998.998 0 01-1 1 1 1 0 111-1zm-1.82 11.46V9.45h1.62v8.94l-1.62-.05zm3.87-6.52c0-.94 0-1.68-.08-2.42h1.44l.09 1.47a3.304 3.304 0 013-1.67c1.23 0 3.15.74 3.15 3.81v5.33h-1.62v-5.1c0-1.45-.54-2.66-2.06-2.66a2.36 2.36 0 00-2.2 1.67 2.833 2.833 0 00-.11.76v5.38h-1.61v-6.57zm17.13-2.42c0 .64-.07 1.36-.07 2.45v5.19c0 2.07-.42 3.31-1.28 4.09a4.828 4.828 0 01-3.25 1.07 5.809 5.809 0 01-3-.73l.41-1.25a5.08 5.08 0 002.63.71c1.66 0 2.88-.87 2.88-3.13v-1a3.174 3.174 0 01-2.84 1.51c-2.23 0-3.81-1.9-3.81-4.37 0-3 2-4.74 4-4.74a3.002 3.002 0 012.78 1.54l.07-1.34h1.48zm-1.69 3.6a2.4 2.4 0 00-.09-.73 2.354 2.354 0 00-2.28-1.73c-1.55 0-2.66 1.31-2.66 3.39 0 1.75.9 3.22 2.64 3.22a2.372 2.372 0 002.26-1.68c.089-.278.132-.568.13-.86V13z" fill="#233241"/></g><defs><clipPath id="clip0"><path d="M0 0h183.25v24H0V0z" fill="#fff"/></clipPath></defs></svg>
